X:1
T:Fue Levantado
T:Misa - Entrada
T:Pascua
C:
S:
M:2/4
L:1/8
Q:1/4=100
K:F
%
%
P:
%%score (2 1)
    [V:2][I:voicecolor #3377ff]z4 | z.A .A.A | D2 z2 | z.A .A.A | D2 :
w: Re-su-ci-tó re-su-ci-tó
    [V:1]z.A .A.A | "Dm7"D2 z2 | z.A .A.A | D2 z2 | z2 :
P:
%%score (1)
w: Re-su-ci-tó re-su-ci-tó
    AB | "F"cc2c | cc2c | "C"c2 BA | Gz :
w: y los cie-los se lle-nan de go-o-o-zo.
    GA | "Gm"BB2B | B2 AG | "Dm"AA2A | AE FG | "A7"A4 :|
w: 1.~A la muer-te ven-ció vi-da nue-va nos dió, ¡A-le-lu-ya!
w: 2.~A la dies-tra del Pa-dre sen-ta-do es-tá, ¡A-le-lu-ya!
    |: "Gm".B3/2.B3/2A | G2 "<("">)"G2 | "Dm".A3/2.A3/2G | .F2 F2 | "Bb"F2 F2 | G3/2F3/2G | "A7"A4 | z4 | :| z2 A2 | =B2 ^c2 | "Dm"d4 |]
w: 1.~Re-su-ci-tó,* con gran po-der can-te-mos: ¡A-le-lu-ya! ¡A-le-lu-ya!
w: 2.~Fue le-van-ta-do con gran po-der can-te-mos: ¡A-le-lu-ya!